X: 1262
T: DOWNES' WALTZ
B: Oliver Ditson "The Boston Collection of Instrumental Music" 1910 p.126 #2
F: http://conquest.imslp.info/files/imglnks/usimg/8/8f/IMSLP175643-PMLP309456-bostoncollection00bost_bw.pdf
%: 2012 John Chambers <jc:trillian.mit.edu>
M: 3/8
L: 1/16
K: G
d2 |\
(db)(fg)(^de) | d4(Bd) | .c.a.B.g.A.f | (gfgd).B.G |\
d(b^abg)d | ec'ac'ag | (fd').d.f.a.b | g4 ]
(Bd) |\
(Bc)(ac)(dc) | (Bd)(bd)(gd) | d(cBcA)c | (Bd)GBdg |\
(Bc)(ac)(dc) | (Bd)(bd)(gd) | c^cd^def | g4 H:|
K: C
|: G2 |\
(cG)(ec)(ge) | fadfBd | GABcdB | ec'gc'eg |\
c(defg)e | (da)(df)(Bd) | (GBdg)fg | (3ege c2 :|
|: G2 |\
Gfefaf | Ge^dege | dfBdGB | cegedB |\
Gfefaf | Ge^dege | dfBdGB | c4 "^D.C.":|

%%sep 1 1 500
%%sep 1 1 500
